X: 11
T: Famous Ballymote, The
Z: Penru
S: https://thesession.org/tunes/390#setting52739
R: reel
M: 4/4
L: 1/8
K: Dmix
|: FDAD F~A3 | cABG EFGE | FDAD FA3 | cAGE EDD2 :|
|: FDFA d2ed | cABG EFGE | FDFA d2ed | cAGE EDD2 :|

